svg/editor/edit_4_fill.svg

<?xml version="1.0" encoding="UTF-8"?>
<svg width="24px" height="24px" viewBox="0 0 24 24" version="1.1" xmlns="http://www.w3.org/2000/svg" xmlns:xlink="http://www.w3.org/1999/xlink">
    <title>edit_4_fill</title>
    <g id="Icon" stroke="none" stroke-width="1" fill="none" fill-rule="evenodd">
        <g id="Editor" transform="translate(-480.000000, -336.000000)">
            <g id="edit_4_fill" transform="translate(480.000000, 336.000000)">
                <path d="M24,0 L24,24 L0,24 L0,0 L24,0 Z M12.5935,23.2578 L12.5819,23.2595 L12.5109,23.295 L12.4919,23.2987 L12.4767,23.295 L12.4057,23.2595 C12.3958,23.2564 12.387,23.259 12.3821,23.2649 L12.378,23.2758 L12.3609,23.7031 L12.3659,23.7235 L12.3769,23.7357 L12.4805,23.8097 L12.4953,23.8136 L12.5071,23.8097 L12.6107,23.7357 L12.6233,23.7197 L12.6267,23.7031 L12.6096,23.2758 C12.6076,23.2657 12.601,23.2593 12.5935,23.2578 Z M12.8584,23.1453 L12.8445,23.1473 L12.6598,23.2397 L12.6499,23.2499 L12.6472,23.2611 L12.6651,23.6906 L12.6699,23.7034 L12.6784,23.7105 L12.8793,23.8032 C12.8914,23.8069 12.9022,23.803 12.9078,23.7952 L12.9118,23.7812 L12.8777,23.1665 C12.8753,23.1546 12.8674,23.147 12.8584,23.1453 Z M12.143,23.1473 C12.1332,23.1424 12.1222,23.1453 12.1156,23.1526 L12.1099,23.1665 L12.0758,23.7812 C12.0751,23.7927 12.0828,23.8019 12.0926,23.8046 L12.1083,23.8032 L12.3092,23.7105 L12.3186,23.7024 L12.3225,23.6906 L12.3404,23.2611 L12.3372,23.2485 L12.3278,23.2397 L12.143,23.1473 Z" id="MingCute" fill-rule="nonzero"></path>
                <path d="M14.5345,12.2254 L18.7772,16.468 L14.5345,20.7106 C14.347,20.8982 14.0927,21.0035 13.8275,21.0035 L10.999,21.0037 C10.7338,21.0037 10.4794,20.8983 10.2918,20.7108 C10.1043,20.5232 9.99894,20.2689 9.99894,20.0036 L9.99894,17.1751 C9.99894,16.9099 10.1044,16.6555 10.2919,16.468 L14.5345,12.2254 Z M17,2 C18.0543909,2 18.9181678,2.81587733 18.9945144,3.85073759 L19,4 L19,8.01927 C17.5138632,7.73937 15.9253208,8.1368095 14.7299951,9.21158 L14.5345,9.39698 L8.87768,15.0538 C8.3619725,15.5695167 8.05341028,16.253709 8.00554914,16.9769743 L7.999,17.1751 L7.99894,20.0036 C7.998932,20.27776 8.0364408,20.548016 8.10861456,20.8075072 L8.1692,21 L5,21 C3.94563773,21 3.08183483,20.18415 3.00548573,19.1492661 L3,19 L3,4 C3,2.94563773 3.81587733,2.08183483 4.85073759,2.00548573 L5,2 L17,2 Z M20.1914,10.8112 C21.363,11.9827 21.363,13.8822 20.1914,15.0538 L15.9488,10.8112 C17.1203,9.63958 19.0198,9.63958 20.1914,10.8112 Z M11,6 L7,6 C6.44772,6 6,6.44772 6,7 C6,7.55228 6.44772,8 7,8 L11,8 C11.5523,8 12,7.55228 12,7 C12,6.44772 11.5523,6 11,6 Z" id="形状" fill="#09244B"></path>
            </g>
        </g>
    </g>
</svg>

<svg xmlns="http://www.w3.org/2000/svg" width="24" height="24"><g fill="none" fill-rule="evenodd"><path d="M24 0v24H0V0h24ZM12.594 23.258l-.012.002-.071.035-.02.004-.014-.004-.071-.036c-.01-.003-.019 0-.024.006l-.004.01-.017.428.005.02.01.013.104.074.015.004.012-.004.104-.074.012-.016.004-.017-.017-.427c-.002-.01-.009-.017-.016-.018Zm.264-.113-.014.002-.184.093-.01.01-.003.011.018.43.005.012.008.008.201.092c.012.004.023 0 .029-.008l.004-.014-.034-.614c-.003-.012-.01-.02-.02-.022Zm-.715.002a.023.023 0 0 0-.027.006l-.006.014-.034.614c0 .012.007.02.017.024l.015-.002.201-.093.01-.008.003-.011.018-.43-.003-.012-.01-.01-.184-.092Z"/><path fill="#09244B" d="m14.535 12.225 4.242 4.243-4.243 4.243a1 1 0 0 1-.707.293H11a1 1 0 0 1-1-1v-2.829a1 1 0 0 1 .293-.707l4.243-4.243ZM17 2a2 2 0 0 1 1.995 1.85L19 4v4.02a4.996 4.996 0 0 0-4.27 1.192l-.196.185-5.656 5.657a3 3 0 0 0-.872 1.923l-.007.198v2.829a3 3 0 0 0 .11.804l.06.192H5a2 2 0 0 1-1.995-1.85L3 19V4a2 2 0 0 1 1.85-1.995L5 2h12Zm3.191 8.811a3 3 0 0 1 0 4.243L15.95 10.81a3 3 0 0 1 4.242 0ZM11 6H7a1 1 0 0 0 0 2h4a1 1 0 1 0 0-2Z"/></g></svg>
